packages/icons/svg/Outline/copy.svg

<svg fill="none" height="24" viewBox="0 0 24 24" width="24" xmlns="http://www.w3.org/2000/svg"><path clip-rule="evenodd" d="m9 13v-1c0-1.654 1.346-3 3-3h1v-3.333c0-.368-.299-.667-.667-.667h-6.666c-.368 0-.667.299-.667.667v6.666c0 .368.299.667.667.667zm0 2h-3.333c-1.471 0-2.667-1.196-2.667-2.667v-6.666c0-1.471 1.196-2.667 2.667-2.667h6.666c1.471 0 2.667 1.196 2.667 2.667v3.333h3c1.654 0 3 1.346 3 3v6c0 1.654-1.346 3-3 3h-6c-1.654 0-3-1.346-3-3zm2-2.9999c0-.551.449-1 1-1h6c.552 0 1 .449 1 1v6c0 .551-.448 1-1 1h-6c-.551 0-1-.449-1-1z" fill="#6b7280" fill-rule="evenodd"/></svg>

<svg width="24" height="24" viewBox="0 0 24 24" fill="none" xmlns="http://www.w3.org/2000/svg">
<g id="Icon/Outline/copy">
<path id="Mask" fill-rule="evenodd" clip-rule="evenodd" d="M9 13V12C9 10.346 10.346 9 12 9H13V5.667C13 5.299 12.701 5 12.333 5H5.667C5.299 5 5 5.299 5 5.667V12.333C5 12.701 5.299 13 5.667 13H9ZM9 15H5.667C4.196 15 3 13.804 3 12.333V5.667C3 4.196 4.196 3 5.667 3H12.333C13.804 3 15 4.196 15 5.667V9H18C19.654 9 21 10.346 21 12V18C21 19.654 19.654 21 18 21H12C10.346 21 9 19.654 9 18V15ZM11 12C11 11.449 11.449 11 12 11H18C18.552 11 19 11.449 19 12V18C19 18.551 18.552 19 18 19H12C11.449 19 11 18.551 11 18V12Z" fill="#000000"/>
</g>
</svg>
